packages/core/src/svgs/diver.svg

<svg width="24" height="24" viewBox="0 0 24 24" fill="none" xmlns="http://www.w3.org/2000/svg">
<g clip-path="url(#clip0_31_9233)">
<path d="M0 0H24V24H0V0Z" fill="url(#paint0_linear_31_9233)"/>
<path d="M10.5001 8.14307H9.70728C10.4669 8.84691 11.0978 9.67795 11.5716 10.5988C11.7216 10.4531 11.8716 10.3159 12.0173 10.1874C11.62 9.43179 11.1082 8.74221 10.5001 8.14307ZM8.82871 8.19021C8.563 8.23307 8.30585 8.29307 8.05728 8.3745C9.17157 9.23164 10.0673 10.3331 10.6587 11.5888C10.8087 11.4088 10.9587 11.2374 11.1087 11.0745C10.5735 9.95497 9.79443 8.96945 8.82871 8.19021ZM7.41014 8.65307C7.213 8.75592 7.02442 8.87164 6.853 9.0045C8.18157 9.92456 9.22776 11.1963 9.87443 12.6774C9.98585 12.4974 10.1059 12.3216 10.2259 12.1545C9.62872 10.7497 8.65412 9.53772 7.41014 8.65307ZM6.373 9.41592C6.21443 9.57449 6.06443 9.74592 5.93585 9.93021C6.67639 10.4072 7.33126 11.0056 7.873 11.7002C8.43871 12.4288 8.84585 13.2431 9.09871 14.1174C9.21442 13.8602 9.33871 13.6031 9.46728 13.3674C8.88311 11.7542 7.79901 10.3698 6.373 9.41592ZM7.36728 12.0559C8.06936 12.9677 8.52405 14.0454 8.68728 15.1845C8.61443 15.3988 8.55014 15.6259 8.49014 15.8574H8.12157C8.06206 14.6636 7.66692 13.5109 6.98157 12.5316C6.54191 11.93 6.001 11.4094 5.383 10.9931L5.46871 10.7788C5.51157 10.6674 5.563 10.5602 5.61443 10.4531C6.31728 10.9159 6.90014 11.4559 7.37157 12.0559H7.36728ZM6.96871 15.8574H7.48728C7.39728 14.7002 7.06728 13.7145 6.45871 12.8745C6.09608 12.3726 5.65467 11.9326 5.15157 11.5716L4.91157 12.1716C5.40014 12.5402 5.79014 12.9388 6.09871 13.3802C6.59992 14.1158 6.89986 14.9699 6.96871 15.8574ZM5.57157 13.7145C6.00443 14.3359 6.24442 15.0388 6.33442 15.8574H5.87157C5.70177 14.871 5.20152 13.9718 4.453 13.3074L4.66728 12.7674C5.04014 13.0674 5.33585 13.3802 5.57157 13.7188V13.7145ZM3.95157 14.5502L4.20871 13.9245C4.73453 14.4534 5.09237 15.1258 5.23728 15.8574H4.65443C4.49909 15.3836 4.26113 14.941 3.95157 14.5502ZM3.67728 15.2359C3.80585 15.4331 3.90443 15.6388 3.99014 15.8574H3.42871L3.67728 15.2359ZM12.0859 8.14307H11.3487C11.7952 8.64319 12.1834 9.19243 12.5059 9.78021C12.6773 9.64307 12.8444 9.51878 13.0073 9.39878C12.7403 8.95216 12.4318 8.53172 12.0859 8.14307ZM13.5644 8.14307H12.8916C13.12 8.4297 13.3305 8.73028 13.5216 9.04307L13.993 8.75164C13.8594 8.54242 13.7164 8.33936 13.5644 8.14307ZM15.1116 8.14307H14.3316L14.533 8.44307C14.7387 8.33164 14.9316 8.22878 15.1116 8.14307ZM15.403 8.48164L15.5059 8.14307H20.5716L18.4459 13.2645C18.1082 14.0429 17.5482 14.7042 16.8361 15.1655C16.1239 15.6268 15.2914 15.8675 14.443 15.8574H9.03442C14.0316 12.9302 14.893 10.1359 15.403 8.48164Z" fill="url(#paint1_linear_31_9233)"/>
</g>
<defs>
<linearGradient id="paint0_linear_31_9233" x1="4.46571" y1="4.16143" x2="29.2071" y2="32.58" gradientUnits="userSpaceOnUse">
<stop stop-color="#1A1E21"/>
<stop offset="1" stop-color="#06060A"/>
</linearGradient>
<linearGradient id="paint1_linear_31_9233" x1="20.5973" y1="8.14307" x2="4.20871" y2="16.4616" gradientUnits="userSpaceOnUse">
<stop stop-color="#0292FB"/>
<stop offset="1" stop-color="#0DCAA0"/>
</linearGradient>
<clipPath id="clip0_31_9233">
<rect width="24" height="24" fill="white"/>
</clipPath>
</defs>
</svg>

<svg xmlns="http://www.w3.org/2000/svg" width="24" height="24" fill="none" viewBox="0 0 24 24"><g clip-path="url(#a)"><path fill="url(#b)" d="M0 0h24v24H0z"/><path fill="url(#c)" d="M10.5 8.143h-.793a8.9 8.9 0 0 1 1.865 2.456q.226-.219.445-.412A8.3 8.3 0 0 0 10.5 8.143M8.83 8.19a5 5 0 0 0-.772.184 8.8 8.8 0 0 1 2.602 3.215q.225-.27.45-.514a8.3 8.3 0 0 0-2.28-2.885m-1.419.463a3.7 3.7 0 0 0-.557.351 8.7 8.7 0 0 1 3.021 3.673q.17-.27.352-.522A8.26 8.26 0 0 0 7.41 8.653m-1.037.763c-.159.158-.309.33-.437.514a7.8 7.8 0 0 1 1.937 1.77 7.2 7.2 0 0 1 1.226 2.417c.115-.257.24-.514.368-.75a8.05 8.05 0 0 0-3.094-3.951m.994 2.64a6.7 6.7 0 0 1 1.32 3.129 10 10 0 0 0-.197.672h-.368a6.35 6.35 0 0 0-1.14-3.325 6.4 6.4 0 0 0-1.599-1.539l.086-.214c.043-.112.094-.219.145-.326a7.4 7.4 0 0 1 1.758 1.603zm-.398 3.801h.518c-.09-1.157-.42-2.142-1.028-2.982a5.7 5.7 0 0 0-1.307-1.303l-.24.6a5.4 5.4 0 0 1 1.187 1.208 5.1 5.1 0 0 1 .87 2.477m-1.397-2.142c.432.62.672 1.324.762 2.142h-.462a4.4 4.4 0 0 0-1.419-2.55l.214-.54c.373.3.669.613.905.952zm-1.62.835.257-.626a3.8 3.8 0 0 1 1.028 1.933h-.583a4.2 4.2 0 0 0-.702-1.307m-.275.686c.129.197.227.403.313.621H3.43zm8.409-7.093h-.737c.446.5.834 1.05 1.157 1.637.171-.137.338-.261.501-.381a8.3 8.3 0 0 0-.921-1.256m1.478 0h-.672q.343.43.63.9l.471-.291a8 8 0 0 0-.429-.609m1.548 0h-.78l.201.3c.206-.111.399-.214.579-.3m.291.339.103-.339h5.066l-2.126 5.121a4.31 4.31 0 0 1-4.003 2.593H9.034c4.998-2.927 5.859-5.721 6.369-7.375"/></g><defs><linearGradient id="b" x1="4.466" x2="29.207" y1="4.161" y2="32.58" gradientUnits="userSpaceOnUse"><stop stop-color="#1A1E21"/><stop offset="1" stop-color="#06060A"/></linearGradient><linearGradient id="c" x1="20.597" x2="4.209" y1="8.143" y2="16.462" gradientUnits="userSpaceOnUse"><stop stop-color="#0292FB"/><stop offset="1" stop-color="#0DCAA0"/></linearGradient><clipPath id="a"><path fill="#fff" d="M0 0h24v24H0z"/></clipPath></defs></svg>
